web/intellij-idea-ce/intellij-idea-ce-text.svg

<svg height="134.28" viewBox="0 0 719.79999 134.28" width="719.79999" xmlns="http://www.w3.org/2000/svg"><path d="m0 3.5556h85.03937v85.03941h-85.03937z"/><g fill="#fff"><path d="m7.97299 72.65155h31.88947v5.31449h-31.88947z"/><path d="m10.86688 14.19427h4.66887v21.22213h-4.66887z"/><path d="m7.89576 31.52568h10.61107v3.89072h-10.61107z"/><path d="m7.89577 14.19427h10.61107v3.89072h-10.61107z"/><path d="m28.6932 35.72a8.44117 8.44117 0 0 1 -4.1684-.94 9.78294 9.78294 0 0 1 -2.7748-2.24326l2.94105-3.2744a8.45542 8.45542 0 0 0 1.83395 1.56159 3.87 3.87 0 0 0 2.04705.56062 2.68556 2.68556 0 0 0 2.09215-.83385 3.92274 3.92274 0 0 0 .75783-2.68283v-13.67325h4.79v13.88547a9.52462 9.52462 0 0 1 -.51553 3.30446 6.459 6.459 0 0 1 -1.48554 2.36451 6.27263 6.27263 0 0 1 -2.37954 1.47051 9.33885 9.33885 0 0 1 -3.13822.50043"/></g><path d="m106.10545 3.645h18.71191v85.0542h-18.71191z"/><path d="m129.79685 23.57224h18.46973v9.23438c4.252-5.46777 9.71973-10.44971 19.07617-10.44971 13.97266 0 22.11426 9.23438 22.11426 24.17969v42.1626h-18.46973v-36.33009c0-8.74854-4.13086-13.24414-11.17773-13.24414-7.04785 0-11.543 4.49561-11.543 13.24414v36.33008h-18.4697v-65.127z"/><path d="m199.415 70.23044v-30.86279h-7.77637v-15.79541h7.77637v-16.64649h18.46875v16.64649h15.30957v15.79541h-15.30955v27.8252c0 4.25244 1.82227 6.31836 5.9541 6.31836a18.77527 18.77527 0 0 0 9.1123-2.30908v14.82372a27.22575 27.22575 0 0 1 -14.58008 3.76709c-11.2998 0-18.95509-4.49609-18.95509-19.5625z"/><path d="m232.70408 56.5v-.24271c0-18.59033 13.24414-33.90039 32.19922-33.90039 21.75 0 31.71289 16.88965 31.71289 35.3584 0 1.458-.12109 3.15918-.24316 4.86035h-45.3213c1.82227 8.38379 7.65527 12.75781 15.917 12.75781 6.19727 0 10.69336-1.94385 15.7959-6.68262l10.57129 9.356c-6.0752 7.5332-14.82324 12.15039-26.60937 12.15039-19.56255-.00003-34.02247-13.73001-34.02247-33.65723zm45.92969-5.46777c-1.09377-8.26223-5.95411-13.8516-13.73047-13.8516-7.6543 0-12.63672 5.46777-14.09473 13.85156h27.8252z"/><path d="m300.13572 0h18.46875v88.69919h-18.46875z"/><path d="m322.48923 0h18.46877v88.69919h-18.46877z"/><path d="m345.57224 0h19.44043v16.40329h-19.44043zm.48633 23.57227h18.46875v65.127h-18.46875z"/><path d="m365.86033 77.15622 11.78613-13.12256c4.86035 5.34619 9.59863 8.50537 15.55273 8.50537 7.04688 0 11.4209-4.25293 11.4209-14.09473v-54.7993h19.19824v55.6499c0 10.085-2.916 17.61816-8.01953 22.72168-5.2246 5.2246-12.8789 7.89742-22.11328 7.89742-13.24414 0-21.99316-5.832-27.82519-12.75778z"/><path d="m454.43162 3.645h18.71191v85.0542h-18.71191z"/><path d="m479.8242 3.645h33.17188c26.73047 0 45.2002 18.34766 45.2002 42.28418v.24316c0 23.93652-18.46973 42.52686-45.2002 42.52686h-33.17188zm18.71191 16.88965v51.27535h14.46c15.30957 0 25.6377-10.32812 25.6377-25.395v-.24267c0-15.06689-10.32812-25.6377-25.6377-25.6377h-14.46z"/><path d="m562.32224 3.645h64.15527v16.64647h-45.56445v17.25391h40.09668v16.646h-40.09668v17.86133h46.17188v16.64648h-64.7627z"/><path d="m666.084 3.03757h17.25391l36.45109 85.66162h-19.5625l-7.77633-19.07619h-35.96582l-7.77635 19.07619h-19.07619zm19.68359 50.06055-11.2998-27.582-11.2998 27.582h22.59961z"/><path d="m469.37583 120.69607v-.06055a10.75693 10.75693 0 0 1 10.79883-11.042 11.10888 11.10888 0 0 1 8.32617 3.38574l-1.64648 1.76855a9.28011 9.28011 0 0 0 -6.71094-2.92773c-4.72754 0-8.26562 3.84375-8.26562 8.75391v.06152c0 4.94141 3.56836 8.81445 8.26563 8.81445 2.92773 0 4.84961-1.12793 6.89355-3.08008l1.58691 1.55566a11.12255 11.12255 0 0 1 -8.541 3.752 10.65065 10.65065 0 0 1 -10.70705-10.98147z"/><path d="m497.37583 120.69607v-.06055a10.88988 10.88988 0 1 1 21.77832-.06152v.06152a10.88988 10.88988 0 1 1 -21.77832.06055zm19.27734 0v-.06055a8.48953 8.48953 0 0 0 -8.41895-8.81543c-4.87988 0-8.3584 3.9043-8.3584 8.75391v.06152a8.48947 8.48947 0 0 0 8.41992 8.81445c4.8799.00003 8.35744-3.90429 8.35744-8.7539z"/><path d="m530.34556 109.95974h2.44044l7.77734 11.65137 7.7793-11.65137h2.43945v21.35156h-2.41016v-17.29492l-7.77734 11.43848h-.12207l-7.77832-11.4082v17.26464h-2.34863v-21.35156z"/><path d="m562.9188 109.95974h2.44141l7.77734 11.65137 7.77832-11.65137h2.44043v21.35156h-2.41016v-17.29492l-7.77734 11.43848h-.123l-7.77734-11.4082v17.26464h-2.34966z"/><path d="m595.15708 122.3738v-12.41406h2.41016v12.26172c0 4.60547 2.4707 7.19824 6.52734 7.19824 3.93555 0 6.43652-2.37891 6.43652-7.0459v-12.41406h2.40918v12.23145c0 6.22168-3.56836 9.45508-8.90625 9.45508-5.27734-.00001-8.87695-3.23341-8.87695-9.27247z"/><path d="m624.742 109.95974h2.25684l13.45216 17.11133v-17.11133h2.34863v21.35156h-1.92187l-13.78711-17.50879v17.50879h-2.34865z"/><path d="m655.15122 109.95974h2.40918v21.35156h-2.40918z"/><path d="m675.55552 112.1863h-7.16895v-2.22656h16.77637v2.22656h-7.168v19.125h-2.43945v-19.125z"/><path d="m702.45689 122.86208-8.877-12.90234h2.92871l7.19824 10.67578 7.25977-10.67578h2.80566l-8.876 12.87207v8.47949h-2.43945v-8.44922z"/></svg>

<svg id="Layer_1" data-name="Layer 1" xmlns="http://www.w3.org/2000/svg" width="719.79999" height="134.28" viewBox="0 0 719.79999 134.28">
  <title>intellij-idea-ce-text</title>
  <g>
    <g>
      <g>
        <rect y="3.5556" width="85.03937" height="85.03941"/>
        <rect x="7.97299" y="72.65155" width="31.88947" height="5.31449" fill="#fff"/>
        <rect x="10.86688" y="14.19427" width="4.66887" height="21.22213" fill="#fff"/>
        <rect x="7.89576" y="31.52568" width="10.61107" height="3.89072" fill="#fff"/>
        <rect x="7.89577" y="14.19427" width="10.61107" height="3.89072" fill="#fff"/>
        <path d="M28.6932,35.72a8.44117,8.44117,0,0,1-4.1684-.94A9.78294,9.78294,0,0,1,21.75,32.53674l2.94105-3.2744A8.45542,8.45542,0,0,0,26.525,30.82393a3.87,3.87,0,0,0,2.04705.56062,2.68556,2.68556,0,0,0,2.09215-.83385,3.92274,3.92274,0,0,0,.75783-2.68283V14.19462h4.79V28.08009a9.52462,9.52462,0,0,1-.51553,3.30446,6.459,6.459,0,0,1-1.48554,2.36451,6.27263,6.27263,0,0,1-2.37954,1.47051A9.33885,9.33885,0,0,1,28.6932,35.72" fill="#fff"/>
      </g>
      <g>
        <path d="M106.10545,3.645h18.71191v85.0542H106.10545V3.645Z"/>
        <path d="M129.79685,23.57224h18.46973v9.23438c4.252-5.46777,9.71973-10.44971,19.07617-10.44971,13.97266,0,22.11426,9.23438,22.11426,24.17969v42.1626H170.98728V52.36911c0-8.74854-4.13086-13.24414-11.17773-13.24414-7.04785,0-11.543,4.49561-11.543,13.24414V88.69919H129.79685v-65.127Z"/>
        <path d="M199.415,70.23044V39.36765h-7.77637V23.57224H199.415V6.92575h18.46875V23.57224h15.30957V39.36765H217.88377v27.8252c0,4.25244,1.82227,6.31836,5.9541,6.31836a18.77527,18.77527,0,0,0,9.1123-2.30908V86.02585a27.22575,27.22575,0,0,1-14.58008,3.76709C207.07029,89.79294,199.415,85.29685,199.415,70.23044Z"/>
        <path d="M232.70408,56.5V56.25729c0-18.59033,13.24414-33.90039,32.19922-33.90039,21.75,0,31.71289,16.88965,31.71289,35.3584,0,1.458-.12109,3.15918-0.24316,4.86035H251.05173c1.82227,8.38379,7.65527,12.75781,15.917,12.75781,6.19727,0,10.69336-1.94385,15.7959-6.68262l10.57129,9.356c-6.0752,7.5332-14.82324,12.15039-26.60937,12.15039C247.164,90.1572,232.70408,76.42722,232.70408,56.5Zm45.92969-5.46777C277.54,42.77,272.67966,37.18063,264.9033,37.18063c-7.6543,0-12.63672,5.46777-14.09473,13.85156h27.8252Z"/>
        <path d="M300.13572,0h18.46875V88.69919H300.13572V0Z"/>
        <path d="M322.48923,0H340.958V88.69919H322.48923V0Z"/>
        <path d="M345.57224,0h19.44043V16.40329H345.57224V0Zm0.48633,23.57227h18.46875v65.127H346.05857v-65.127Z"/>
        <path d="M365.86033,77.15622l11.78613-13.12256c4.86035,5.34619,9.59863,8.50537,15.55273,8.50537,7.04688,0,11.4209-4.25293,11.4209-14.09473V3.645h19.19824v55.6499c0,10.085-2.916,17.61816-8.01953,22.72168C410.5742,87.24118,402.9199,89.914,393.68552,89.914,380.44138,89.914,371.69236,84.082,365.86033,77.15622Z"/>
        <path d="M454.43162,3.645h18.71191v85.0542H454.43162V3.645Z"/>
        <path d="M479.8242,3.645h33.17188c26.73047,0,45.2002,18.34766,45.2002,42.28418v0.24316c0,23.93652-18.46973,42.52686-45.2002,42.52686H479.8242V3.645Zm18.71191,16.88965V71.81h14.46c15.30957,0,25.6377-10.32812,25.6377-25.395V46.17233c0-15.06689-10.32812-25.6377-25.6377-25.6377h-14.46Z"/>
        <path d="M562.32224,3.645h64.15527V20.29147H580.91306V37.54538h40.09668v16.646H580.91306V72.05271h46.17188V88.69919h-64.7627V3.645Z"/>
        <path d="M666.084,3.03757h17.25391L719.789,88.69919h-19.5625L692.45017,69.623H656.48435L648.708,88.69919H629.63181Zm19.68359,50.06055-11.2998-27.582-11.2998,27.582h22.59961Z"/>
      </g>
    </g>
    <g>
      <path d="M469.37583,120.69607v-0.06055a10.75693,10.75693,0,0,1,10.79883-11.042,11.10888,11.10888,0,0,1,8.32617,3.38574l-1.64648,1.76855a9.28011,9.28011,0,0,0-6.71094-2.92773c-4.72754,0-8.26562,3.84375-8.26562,8.75391v0.06152c0,4.94141,3.56836,8.81445,8.26563,8.81445,2.92773,0,4.84961-1.12793,6.89355-3.08008l1.58691,1.55566a11.12255,11.12255,0,0,1-8.541,3.752A10.65065,10.65065,0,0,1,469.37583,120.69607Z"/>
      <path d="M497.37583,120.69607v-0.06055a10.88988,10.88988,0,1,1,21.77832-.06152v0.06152A10.88988,10.88988,0,1,1,497.37583,120.69607Zm19.27734,0v-0.06055a8.48953,8.48953,0,0,0-8.41895-8.81543c-4.87988,0-8.3584,3.9043-8.3584,8.75391v0.06152a8.48947,8.48947,0,0,0,8.41992,8.81445C513.17564,129.45,516.65318,125.54568,516.65318,120.69607Z"/>
      <path d="M530.34556,109.95974H532.786l7.77734,11.65137,7.7793-11.65137h2.43945V131.3113h-2.41016V114.01638l-7.77734,11.43848h-0.12207l-7.77832-11.4082V131.3113h-2.34863V109.95974Z"/>
      <path d="M562.9188,109.95974h2.44141l7.77734,11.65137,7.77832-11.65137h2.44043V131.3113h-2.41016V114.01638l-7.77734,11.43848h-0.123l-7.77734-11.4082V131.3113H562.9188V109.95974Z"/>
      <path d="M595.15708,122.3738V109.95974h2.41016v12.26172c0,4.60547,2.4707,7.19824,6.52734,7.19824,3.93555,0,6.43652-2.37891,6.43652-7.0459V109.95974h2.40918v12.23145c0,6.22168-3.56836,9.45508-8.90625,9.45508C598.75669,131.64626,595.15708,128.41286,595.15708,122.3738Z"/>
      <path d="M624.742,109.95974h2.25684L640.451,127.07107V109.95974h2.34863V131.3113h-1.92187l-13.78711-17.50879V131.3113H624.742V109.95974Z"/>
      <path d="M655.15122,109.95974h2.40918V131.3113h-2.40918V109.95974Z"/>
      <path d="M675.55552,112.1863h-7.16895v-2.22656h16.77637v2.22656h-7.168v19.125h-2.43945v-19.125Z"/>
      <path d="M702.45689,122.86208l-8.877-12.90234h2.92871l7.19824,10.67578,7.25977-10.67578h2.80566l-8.876,12.87207v8.47949h-2.43945v-8.44922Z"/>
    </g>
  </g>
</svg>
